TrafficJam2023/images/icons/vk.svg

<svg width="20" height="20" viewBox="0 0 20 20" fill="none" xmlns="http://www.w3.org/2000/svg">
<path fill-rule="evenodd" clip-rule="evenodd" d="M0.638984 4.38721C0.909275 4.08889 1.29395 4 1.66869 4H3.65132C3.99792 4 4.354 4.07826 4.64899 4.35446C4.90892 4.59784 5.04507 4.92961 5.14444 5.2289C5.61539 6.62252 6.24275 7.92765 6.82568 8.87459C7.0714 9.27377 7.30131 9.59633 7.49982 9.83109V7.11557C7.46706 6.57562 7.32071 6.32358 7.20049 6.15423C7.16543 6.10483 7.13044 6.05985 7.08826 6.00562L7.08242 5.99812C7.04168 5.94573 6.98735 5.87586 6.93846 5.80235C6.83317 5.64401 6.71832 5.41894 6.71832 5.11979C6.71832 4.54226 7.1837 4 7.86407 4H10.9526C11.2862 4 11.6635 4.09992 11.9184 4.44439C12.1375 4.74047 12.1744 5.10438 12.1744 5.39365V9.02C12.203 8.99145 12.2334 8.96062 12.266 8.92731C12.9166 8.1743 13.4896 7.2016 13.9069 6.3947C14.1147 5.9927 14.2799 5.63987 14.3927 5.38827C14.4491 5.2626 14.4923 5.16254 14.5211 5.09463C14.5355 5.06069 14.5462 5.03481 14.5532 5.01782L14.5609 4.99911L14.5626 4.99495L14.5682 4.98115L14.5741 4.96818C14.6652 4.76808 14.8111 4.52328 15.0607 4.32984C15.3213 4.12792 15.6459 4.01986 16.0233 4.01986H17.9872C18.3703 4.01986 18.8213 4.12026 19.0903 4.513C19.3418 4.88019 19.2901 5.29803 19.2059 5.58263C19.1166 5.97054 18.8851 6.46521 18.6345 6.93987C18.365 7.45037 18.0335 8.01013 17.7155 8.52479C17.3966 9.04082 17.0868 9.51851 16.8588 9.86593C16.7765 9.9914 16.7042 10.1008 16.6465 10.1881C16.6245 10.2214 16.6047 10.2514 16.5872 10.2779C16.5572 10.3235 16.5352 10.357 16.5207 10.3794L16.5057 10.4046C16.48 10.4479 16.4599 10.4821 16.4431 10.5121C16.4393 10.5191 16.4357 10.5256 16.4325 10.5316C16.4425 10.5471 16.4555 10.5661 16.4722 10.5891L16.4763 10.5947C16.5421 10.6869 16.7151 10.8641 16.9923 11.1434L16.9937 11.1448C17.2433 11.3963 17.5478 11.7032 17.7968 12.0007C18.2173 12.4913 18.6027 12.9572 18.9069 13.3779C19.2028 13.787 19.4627 14.2076 19.5815 14.6008L19.5843 14.6103L19.5869 14.6199C19.6908 15.0063 19.697 15.4729 19.3891 15.8459C19.0916 16.2064 18.6461 16.3 18.273 16.3H16.3095C16.0212 16.3 15.7595 16.2366 15.5116 16.1013C15.279 15.9744 15.0851 15.7981 14.9103 15.6173C14.7711 15.4733 14.6184 15.2986 14.4539 15.1104C14.4143 15.0651 14.374 15.019 14.3331 14.9723C14.1167 14.7258 13.8616 14.4404 13.541 14.111C12.7742 13.3499 12.3638 13.1064 12.1744 13.0287V14.8475C12.1744 15.1449 12.1317 15.6327 11.6598 15.9578C11.2839 16.2167 10.7454 16.2805 10.1137 16.2805C7.77224 16.2805 5.28335 14.8368 3.57207 12.2976C2.32574 10.4976 1.52665 8.90995 1.03717 7.69412C0.792412 7.08616 0.623956 6.56842 0.51572 6.16102C0.412418 5.77219 0.351562 5.4386 0.351562 5.21757C0.351562 5.02285 0.377826 4.67544 0.638984 4.38721ZM17.932 5.31986H16.0233C15.96 5.31986 15.9214 5.32852 15.9001 5.33546C15.8795 5.34212 15.8668 5.34979 15.8569 5.35745C15.8358 5.37384 15.8023 5.4106 15.762 5.49655L15.7548 5.51411C15.7463 5.53461 15.734 5.56415 15.718 5.6019C15.686 5.67736 15.6393 5.78573 15.5789 5.92034C15.4582 6.1893 15.2826 6.56437 15.0616 6.99182C14.6236 7.83884 13.9906 8.92411 13.2355 9.79361L13.2233 9.8076L13.2104 9.82088C12.982 10.0554 12.777 10.2531 12.58 10.3902C12.3612 10.5425 12.1196 10.6438 11.8297 10.6438C11.4942 10.6438 11.231 10.4482 11.0799 10.2126C10.9317 9.98151 10.8745 9.69959 10.8745 9.40674V5.39365C10.8745 5.35731 10.8734 5.32629 10.8717 5.3H8.18575C8.20961 5.33148 8.23497 5.36568 8.26056 5.40172C8.51079 5.75423 8.75336 6.24248 8.79882 7.06067L8.79982 7.07869V10.0736C8.79982 10.3896 8.78041 10.7352 8.63469 11.0059C8.5455 11.1715 8.40893 11.3125 8.22276 11.3988C8.05453 11.4767 7.89276 11.4875 7.78757 11.4875C7.51302 11.4875 7.28364 11.3649 7.13092 11.2613C6.96545 11.149 6.80608 11.001 6.65666 10.8397C6.35636 10.5155 6.03578 10.0713 5.71862 9.55608C5.0818 8.52158 4.41324 7.12626 3.91226 5.64332L3.9111 5.6399C3.86931 5.51389 3.83452 5.42987 3.80472 5.37273C3.78626 5.33733 3.77288 5.31845 3.7659 5.3097C3.75159 5.30616 3.71714 5.3 3.65132 5.3H1.66869C1.66553 5.3 1.66243 5.30001 1.65939 5.30004C1.66309 5.32793 1.6682 5.36127 1.67508 5.40024C1.69429 5.50898 1.72554 5.65184 1.77214 5.82722C1.86524 6.17767 2.01607 6.64468 2.24311 7.20862C2.69691 8.33581 3.45074 9.83929 4.64316 11.5609L4.64801 11.5679C6.17741 13.8391 8.3005 14.9805 10.1137 14.9805C10.4071 14.9805 10.6095 14.9631 10.7475 14.9377C10.805 14.9271 10.8456 14.9162 10.8731 14.9072C10.8739 14.8914 10.8745 14.8718 10.8745 14.8475V13.0272C10.8745 12.8657 10.8818 12.7035 10.9094 12.5542C10.9371 12.405 10.9932 12.2215 11.1251 12.0573C11.4146 11.6973 11.8463 11.6924 12.0393 11.6924C12.6074 11.6924 13.288 12.0275 14.4609 13.1924L14.4686 13.2C14.8132 13.5539 15.0859 13.8594 15.31 14.1147C15.3577 14.169 15.4024 14.2201 15.4446 14.2683C15.6061 14.4531 15.7306 14.5955 15.845 14.7138C15.9871 14.8608 16.0732 14.9268 16.1343 14.9601C16.1801 14.9851 16.2259 15 16.3095 15H18.273C18.2989 15 18.3216 14.999 18.3412 14.9974C18.3392 14.9881 18.3368 14.9781 18.3341 14.9672C18.279 14.7925 18.1294 14.5212 17.8535 14.1397C17.5817 13.7638 17.2244 13.3305 16.8071 12.8437L16.8017 12.8374C16.594 12.5888 16.3287 12.3202 16.0696 12.0591C16.0558 12.0452 16.0419 12.0313 16.0279 12.0171C15.806 11.7938 15.5561 11.5422 15.4203 11.353C15.2475 11.1157 15.0871 10.8226 15.1131 10.4608C15.1345 10.1638 15.2854 9.91198 15.3738 9.7644L15.3767 9.75969C15.3853 9.74371 15.3928 9.73132 15.3955 9.72686C15.4047 9.71145 15.4155 9.6946 15.4243 9.68095C15.4431 9.65162 15.47 9.61069 15.502 9.56224C15.5202 9.53453 15.5406 9.50372 15.5629 9.46996C15.6203 9.383 15.6907 9.27643 15.7719 9.15272C15.9967 8.81013 16.2994 8.34332 16.6096 7.84137C16.9207 7.33806 17.235 6.80636 17.4849 6.33295C17.7284 5.87175 17.8796 5.52272 17.932 5.31986Z" fill="#FCFDFD"/>
</svg>

<svg xmlns="http://www.w3.org/2000/svg" width="20" height="20" fill="none" viewBox="0 0 20 20"><path fill="#FCFDFD" fill-rule="evenodd" d="M.639 4.387C.909 4.09 1.294 4 1.669 4H3.65c.347 0 .703.078.998.354.26.244.396.576.495.875.471 1.394 1.099 2.699 1.682 3.646.245.399.475.721.674.956V7.116c-.033-.54-.18-.792-.3-.962-.035-.05-.07-.094-.112-.148l-.006-.008a3.296 3.296 0 0 1-.144-.196 1.21 1.21 0 0 1-.22-.682c0-.578.466-1.12 1.146-1.12h3.089c.333 0 .71.1.965.444.22.296.256.66.256.95V9.02l.092-.093c.65-.753 1.224-1.725 1.64-2.532a20.348 20.348 0 0 0 .647-1.377l.008-.019.002-.004.005-.014.006-.013c.091-.2.237-.445.487-.638.26-.202.585-.31.962-.31h1.964c.383 0 .834.1 1.103.493.252.367.2.785.116 1.07-.09.388-.32.882-.572 1.357-.269.51-.6 1.07-.919 1.585a59.127 59.127 0 0 1-1.069 1.663l-.059.09-.066.101-.015.026a5.12 5.12 0 0 0-.063.107l-.01.02.04.057.003.006c.066.092.24.27.516.548l.002.002c.25.251.554.558.803.856.42.49.806.956 1.11 1.377.296.409.556.83.674 1.223l.003.01.003.009c.104.386.11.853-.198 1.226-.297.36-.743.454-1.116.454H16.31c-.289 0-.55-.063-.798-.199a2.553 2.553 0 0 1-.602-.484 13.434 13.434 0 0 1-.456-.507l-.12-.138a22.024 22.024 0 0 0-.793-.861c-.767-.761-1.177-1.005-1.367-1.082v1.819c0 .297-.042.785-.514 1.11-.376.259-.915.322-1.546.322-2.342 0-4.83-1.443-6.542-3.982-1.246-1.8-2.045-3.388-2.535-4.604a13.37 13.37 0 0 1-.521-1.533c-.104-.389-.164-.722-.164-.943 0-.195.026-.543.287-.83Zm17.293.933h-1.909a.4.4 0 0 0-.123.015.135.135 0 0 0-.043.022.373.373 0 0 0-.095.14l-.007.017a11.903 11.903 0 0 1-.176.406c-.12.27-.296.644-.517 1.072-.438.847-1.071 1.932-1.826 2.802l-.013.014-.013.013a4.673 4.673 0 0 1-.63.57c-.219.152-.46.253-.75.253a.897.897 0 0 1-.75-.431c-.148-.231-.206-.513-.206-.806V5.394c0-.037 0-.068-.002-.094H8.186l.075.102c.25.352.492.84.538 1.659v3.013c0 .316-.019.661-.164.932a.892.892 0 0 1-.412.393c-.168.078-.33.089-.435.089-.275 0-.504-.123-.657-.227a2.846 2.846 0 0 1-.474-.421c-.3-.325-.621-.769-.938-1.284-.637-1.034-1.306-2.43-1.807-3.913V5.64a1.864 1.864 0 0 0-.107-.267.399.399 0 0 0-.04-.063.5.5 0 0 0-.114-.01H1.66l.016.1c.02.109.05.252.097.427.093.35.244.818.471 1.382.454 1.127 1.208 2.63 2.4 4.352l.005.007c1.53 2.271 3.652 3.412 5.466 3.412.293 0 .495-.017.633-.042a.98.98 0 0 0 .126-.03l.002-.06v-1.82c0-.162.007-.325.034-.474a1.11 1.11 0 0 1 .216-.497c.29-.36.721-.365.914-.365.568 0 1.249.335 2.422 1.5l.008.008c.344.354.617.66.841.915l.135.153c.161.185.286.327.4.446.142.147.228.213.29.246a.33.33 0 0 0 .174.04h1.964a.84.84 0 0 0 .068-.003 1.016 1.016 0 0 0-.007-.03c-.055-.175-.205-.446-.48-.827-.272-.376-.63-.81-1.047-1.296l-.005-.007a13.173 13.173 0 0 0-.732-.778l-.042-.042c-.222-.223-.472-.475-.608-.664-.172-.237-.333-.53-.307-.892.021-.297.172-.549.26-.697l.004-.004a.737.737 0 0 1 .047-.08c.02-.028.046-.07.078-.118l.06-.092.21-.317c.225-.343.527-.81.838-1.312.31-.503.625-1.035.875-1.508.243-.461.395-.81.447-1.013Z" clip-rule="evenodd"/></svg>
